public/cloud-icons/azure/data/purview-account.svg

<?xml version="1.0" encoding="UTF-8" standalone="no"?>
<!-- Generated by Microsoft Visio, SVG Export Purview Account.svg Page-1 -->

<svg
   xmlns:dc="http://purl.org/dc/elements/1.1/"
   xmlns:cc="http://creativecommons.org/ns#"
   xmlns:rdf="http://www.w3.org/1999/02/22-rdf-syntax-ns#"
   xmlns:svg="http://www.w3.org/2000/svg"
   xmlns="http://www.w3.org/2000/svg"
   xmlns:sodipodi="http://sodipodi.sourceforge.net/DTD/sodipodi-0.dtd"
   xmlns:inkscape="http://www.inkscape.org/namespaces/inkscape"
   width="56.692162"
   height="34.342461"
   viewBox="0 0 56.692163 34.342462"
   xml:space="preserve"
   class="st5"
   version="1.1"
   id="svg58"
   sodipodi:docname="Purview Account.svg"
   style="font-size:12px;overflow:visible;color-interpolation-filters:sRGB;fill:none;fill-rule:evenodd;stroke-linecap:square;stroke-miterlimit:3"
   inkscape:version="0.92.5 (2060ec1f9f, 2020-04-08)"><metadata
   id="metadata62"><rdf:RDF><cc:Work
       rdf:about=""><dc:format>image/svg+xml</dc:format><dc:type
         rdf:resource="http://purl.org/dc/dcmitype/StillImage" /></cc:Work></rdf:RDF></metadata><sodipodi:namedview
   pagecolor="#ffffff"
   bordercolor="#666666"
   borderopacity="1"
   objecttolerance="10"
   gridtolerance="10"
   guidetolerance="10"
   inkscape:pageopacity="0"
   inkscape:pageshadow="2"
   inkscape:window-width="640"
   inkscape:window-height="480"
   id="namedview60"
   showgrid="false"
   inkscape:zoom="2.3262463"
   inkscape:cx="28.347067"
   inkscape:cy="16.709151"
   inkscape:window-x="0"
   inkscape:window-y="0"
   inkscape:window-maximized="0"
   inkscape:current-layer="svg58" />
	<style
   type="text/css"
   id="style2">
	<![CDATA[
		.st1 {fill:url(#grad0-5);stroke:none;stroke-linecap:butt;stroke-width:33.0936}
		.st2 {fill:url(#grad0-9);stroke:none;stroke-linecap:butt;stroke-width:33.0936}
		.st3 {fill:url(#grad0-13);stroke:none;stroke-linecap:butt;stroke-width:33.0936}
		.st4 {fill:url(#grad0-17);stroke:none;stroke-linecap:butt;stroke-width:33.0936}
		.st5 {fill:none;fill-rule:evenodd;font-size:12px;overflow:visible;stroke-linecap:square;stroke-miterlimit:3}
	]]>
	</style>

	<defs
   id="Patterns_And_Gradients">
		<linearGradient
   id="grad0-5"
   x1="-2.2863537"
   y1="92.100099"
   x2="9.9908875"
   y2="92.100099"
   gradientTransform="scale(1.0154366,0.98479807)"
   gradientUnits="userSpaceOnUse">
			<stop
   offset="0"
   stop-color="#29bade"
   stop-opacity="1"
   id="stop4" />
			<stop
   offset="1"
   stop-color="#50e6ff"
   stop-opacity="1"
   id="stop6" />
		</linearGradient>
		<linearGradient
   id="grad0-9"
   x1="-0.00051729753"
   y1="99.689633"
   x2="31.416255"
   y2="99.689633"
   gradientTransform="scale(1.2923209,0.77380162)"
   gradientUnits="userSpaceOnUse">
			<stop
   offset="0.04"
   stop-color="#32bedd"
   stop-opacity="1"
   id="stop9" />
			<stop
   offset="0.495"
   stop-color="#50e6ff"
   stop-opacity="1"
   id="stop11" />
			<stop
   offset="0.92"
   stop-color="#c3f1ff"
   stop-opacity="1"
   id="stop13" />
		</linearGradient>
		<linearGradient
   id="grad0-13"
   x1="0"
   y1="93.081469"
   x2="25.411166"
   y2="93.081469"
   gradientTransform="scale(1.1679905,0.85617136)"
   gradientUnits="userSpaceOnUse">
			<stop
   offset="0.245"
   stop-color="#0078d4"
   stop-opacity="1"
   id="stop16" />
			<stop
   offset="0.6"
   stop-color="#2e8ce1"
   stop-opacity="1"
   id="stop18" />
			<stop
   offset="0.935"
   stop-color="#589eed"
   stop-opacity="1"
   id="stop20" />
		</linearGradient>
		<linearGradient
   id="grad0-17"
   x1="0"
   y1="81.280257"
   x2="26.036369"
   y2="81.280257"
   gradientTransform="scale(1.0578278,0.94533349)"
   gradientUnits="userSpaceOnUse">
			<stop
   offset="0"
   stop-color="#005ba1"
   stop-opacity="1"
   id="stop23" />
			<stop
   offset="0.4"
   stop-color="#0078d4"
   stop-opacity="1"
   id="stop25" />
			<stop
   offset="0.855"
   stop-color="#5ea0ef"
   stop-opacity="1"
   id="stop27" />
		</linearGradient>
	</defs>
	<g
   id="g56"
   transform="translate(-33.092931,-33.092188)">
		<title
   id="title31">Page-1</title>
		<g
   id="group20598-1"
   transform="translate(33.0936,-34.0157)">
			<title
   id="title33">Purview Account.20598</title>
			<g
   id="shape20599-2"
   transform="translate(24.3554,-11.9786)">
				<title
   id="title35">path4</title>
				<path
   d="m 8.95,95.65 a 5.10891,4.95488 0 0 1 -5.1,-4.95 6.23338,6.04545 -180 1 0 6.17,4.84 5.15931,5.00376 0 0 1 -1.07,0.11 z"
   class="st1"
   id="path37"
   inkscape:connector-curvature="0"
   style="fill:url(#grad0-5);stroke:none;stroke-width:33.09360123;stroke-linecap:butt" />
			</g>
			<g
   id="shape20600-6">
				<title
   id="title40">path6</title>
				<path
   d="m 40.51,91.1 a 15.9095,15.4298 -180 0 0 -2.07,-6.19 10.1359,9.83034 0 0 1 -10.1,9.23 c -0.24,0 -0.47,-0.05 -0.7,-0.07 A 21.2136,20.5741 0 0 1 13.28,88.39 27.4785,26.6501 0 0 1 6.09,77.14 a 64.4032,62.4615 -180 0 0 -5.17,5.11 2.86313,2.77681 -180 0 0 0,4.08 53.19,51.5864 -180 0 0 12.18,10.41 27.7179,26.8822 -180 0 0 15.66,4.71 22.6783,21.9945 -180 0 0 10.45,-2.41 c 0.2,-0.09 0.38,-0.21 0.58,-0.31 a 21.8153,21.1575 -180 0 0 0.72,-7.63 z"
   class="st2"
   id="path42"
   inkscape:connector-curvature="0"
   style="fill:url(#grad0-9);stroke:none;stroke-width:33.09360123;stroke-linecap:butt" />
			</g>
			<g
   id="shape20601-10"
   transform="translate(8.66346,-12.5858)">
				<title
   id="title45">path8</title>
				<path
   d="M 10.73,101.45 A 10.0068,9.70509 0 0 1 12.59,89.82 20.2026,19.5935 0 0 1 22.81,82.79 24.9304,24.1787 0 0 1 29.68,81.74 26.3856,25.59 -180 0 0 23.83,80.03 25.1288,24.3712 -180 0 0 7.75,82.61 44.966,43.6103 -180 0 0 0,87.55 a 24.6815,23.9374 -180 0 0 6.61,11.04 18.8261,18.2585 -180 0 0 4.12,2.86 z"
   class="st3"
   id="path47"
   inkscape:connector-curvature="0"
   style="fill:url(#grad0-13);stroke:none;stroke-width:33.09360123;stroke-linecap:butt" />
			</g>
			<g
   id="shape20602-14"
   transform="translate(29.1495,-4.66162)">
				<title
   id="title50">path10</title>
				<path
   d="M 26.69,87.05 A 54.1759,52.5425 -180 0 0 16.12,77.64 23.4311,22.7246 -180 0 0 3.55,77.7 18.0292,17.4857 -180 0 0 0,79.17 a 10.1076,9.80285 0 0 1 4.92,1.64 1.42684,1.38382 0 0 1 0.37,0.16 21.1412,20.5038 0 0 1 9.11,13.88 24.0295,23.3051 0 0 1 -0.11,6.6 53.3916,51.7819 -180 0 0 12.39,-10.56 2.7151,2.63324 -180 0 0 0.01,-3.84 z"
   class="st4"
   id="path52"
   inkscape:connector-curvature="0"
   style="fill:url(#grad0-17);stroke:none;stroke-width:33.09360123;stroke-linecap:butt" />
			</g>
		</g>
	</g>
</svg>

<svg xmlns="http://www.w3.org/2000/svg" xml:space="preserve" width="56.692" height="34.342" style="font-size:12px;overflow:visible;color-interpolation-filters:sRGB;fill-rule:evenodd;stroke-linecap:square;stroke-miterlimit:3" viewBox="0 0 56.692 34.342"><defs><linearGradient id="a" x1="-2.286" x2="9.991" y1="92.1" y2="92.1" gradientTransform="scale(1.01544 .9848)" gradientUnits="userSpaceOnUse"><stop offset="0" stop-color="#29bade"/><stop offset="1" stop-color="#50e6ff"/></linearGradient><linearGradient id="b" x1="-.001" x2="31.416" y1="99.69" y2="99.69" gradientTransform="scale(1.29232 .7738)" gradientUnits="userSpaceOnUse"><stop offset=".04" stop-color="#32bedd"/><stop offset=".495" stop-color="#50e6ff"/><stop offset=".92" stop-color="#c3f1ff"/></linearGradient><linearGradient id="c" x1="0" x2="25.411" y1="93.081" y2="93.081" gradientTransform="scale(1.168 .85617)" gradientUnits="userSpaceOnUse"><stop offset=".245" stop-color="#0078d4"/><stop offset=".6" stop-color="#2e8ce1"/><stop offset=".935" stop-color="#589eed"/></linearGradient><linearGradient id="d" x1="0" x2="26.036" y1="81.28" y2="81.28" gradientTransform="scale(1.05783 .94533)" gradientUnits="userSpaceOnUse"><stop offset="0" stop-color="#005ba1"/><stop offset=".4" stop-color="#0078d4"/><stop offset=".855" stop-color="#5ea0ef"/></linearGradient></defs><g transform="translate(-33.093 -33.092)"><title>Page-1</title><g transform="translate(33.094 -34.016)"><title>Purview Account.20598</title><g transform="translate(24.355 -11.979)"><title>path4</title><path d="M8.95 95.65a5.109 4.955 0 0 1-5.1-4.95 6.233 6.045-180 1 0 6.17 4.84 5.16 5.004 0 0 1-1.07.11" style="fill:url(#a);stroke:none;stroke-width:33.09360123;stroke-linecap:butt"/></g><title>path6</title><path d="M40.51 91.1a15.91 15.43-180 0 0-2.07-6.19 10.136 9.83 0 0 1-10.1 9.23c-.24 0-.47-.05-.7-.07a21.214 20.574 0 0 1-14.36-5.68 27.479 26.65 0 0 1-7.19-11.25 64.403 62.462-180 0 0-5.17 5.11 2.863 2.777-180 0 0 0 4.08A53.19 51.586-180 0 0 13.1 96.74a27.718 26.882-180 0 0 15.66 4.71 22.678 21.995-180 0 0 10.45-2.41c.2-.09.38-.21.58-.31a21.815 21.158-180 0 0 .72-7.63" style="fill:url(#b);stroke:none;stroke-width:33.09360123;stroke-linecap:butt"/><g transform="translate(8.663 -12.586)"><title>path8</title><path d="M10.73 101.45a10.007 9.705 0 0 1 1.86-11.63 20.203 19.594 0 0 1 10.22-7.03 24.93 24.179 0 0 1 6.87-1.05 26.386 25.59-180 0 0-5.85-1.71 25.129 24.371-180 0 0-16.08 2.58A44.966 43.61-180 0 0 0 87.55a24.682 23.937-180 0 0 6.61 11.04 18.826 18.259-180 0 0 4.12 2.86" style="fill:url(#c);stroke:none;stroke-width:33.09360123;stroke-linecap:butt"/></g><g transform="translate(29.15 -4.662)"><title>path10</title><path d="M26.69 87.05a54.176 52.543-180 0 0-10.57-9.41 23.431 22.725-180 0 0-12.57.06A18.03 17.486-180 0 0 0 79.17a10.108 9.803 0 0 1 4.92 1.64 1.427 1.384 0 0 1 .37.16 21.141 20.504 0 0 1 9.11 13.88 24.03 23.305 0 0 1-.11 6.6 53.392 51.782-180 0 0 12.39-10.56 2.715 2.633-180 0 0 .01-3.84" style="fill:url(#d);stroke:none;stroke-width:33.09360123;stroke-linecap:butt"/></g></g></g></svg>
